X: 32229
T: Phrygian Whistle, The
R: reel
M: 4/4
K: Gmajor
Bffe f2ef|geef decd|Bffe f2ab|1 gceg f3c:|2 gceg f3a||
bfff gfff|fedf edB2|bfff gfff|efaf faaa|
bbbf gfff|fedf edB2|ABdB eBfB|gBBA FEDE||
FBBB cBBB|fBBB cBDE|FBBB cBBB|fBcA B3A|
FBBB cBBB|fBBB BGF2|EDEF AFBd|eBBA ~B3B||
bBaB gBfB|EFFF ABBB|bBaB gBfB|edef affa|
b3f gfff|fedf edB2|ABdB efff|edFA B4||

